Simply-Cyan-Circles/scalable/devices/computer-laptop.svg

<svg xmlns="http://www.w3.org/2000/svg" width="48" height="48" viewBox="0 0 12.7 12.7"><path d="M6.344.073a6.29 6.29 0 0 0-6.29 6.29 6.29 6.29 0 0 0 6.29 6.288 6.29 6.29 0 0 0 6.29-6.289 6.29 6.29 0 0 0-6.29-6.29zm-.018.936a5.407 5.407 0 0 1 5.407 5.407 5.407 5.407 0 0 1-5.407 5.407A5.407 5.407 0 0 1 .92 6.416 5.407 5.407 0 0 1 6.326 1.01zM3.652 3.347c-.58 0-1.046.467-1.046 1.047V7.74c0 .391.215.728.532.907h-.932v.82h8.28v-.82h-.852a1.04 1.04 0 0 0 .531-.907V4.394c0-.58-.466-1.047-1.046-1.047H3.652zm.545.54h4.407a.88.88 0 0 1 .881.88v2.819a.88.88 0 0 1-.88.88H4.196a.88.88 0 0 1-.881-.88V4.768a.88.88 0 0 1 .88-.881zm1.517 4.668h1.301v.268H5.714v-.268z" fill="#5beedc"/></svg>

<?xml version="1.0" encoding="UTF-8" standalone="no"?>
<svg
   xmlns:dc="http://purl.org/dc/elements/1.1/"
   xmlns:cc="http://creativecommons.org/ns#"
   xmlns:rdf="http://www.w3.org/1999/02/22-rdf-syntax-ns#"
   xmlns:svg="http://www.w3.org/2000/svg"
   xmlns="http://www.w3.org/2000/svg"
   xmlns:sodipodi="http://sodipodi.sourceforge.net/DTD/sodipodi-0.dtd"
   xmlns:inkscape="http://www.inkscape.org/namespaces/inkscape"
   width="48"
   height="48"
   viewBox="0 0 12.7 12.7"
   version="1.1"
   id="svg4"
   sodipodi:docname="computer-laptop.svg"
   inkscape:version="0.92.4 (5da689c313, 2019-01-14)">
  <metadata
     id="metadata10">
    <rdf:RDF>
      <cc:Work
         rdf:about="">
        <dc:format>image/svg+xml</dc:format>
        <dc:type
           rdf:resource="http://purl.org/dc/dcmitype/StillImage" />
        <dc:title></dc:title>
      </cc:Work>
    </rdf:RDF>
  </metadata>
  <defs
     id="defs8" />
  <sodipodi:namedview
     pagecolor="#ffffff"
     bordercolor="#666666"
     borderopacity="1"
     objecttolerance="10"
     gridtolerance="10"
     guidetolerance="10"
     inkscape:pageopacity="0"
     inkscape:pageshadow="2"
     inkscape:window-width="1087"
     inkscape:window-height="480"
     id="namedview6"
     showgrid="false"
     inkscape:zoom="4.9166667"
     inkscape:cx="2.1355932"
     inkscape:cy="24"
     inkscape:window-x="0"
     inkscape:window-y="25"
     inkscape:window-maximized="0"
     inkscape:current-layer="svg4" />
  <path
     d="m 6.344,0.073 a 6.29,6.29 0 0 0 -6.29,6.29 6.29,6.29 0 0 0 6.29,6.288 6.29,6.29 0 0 0 6.29,-6.289 6.29,6.29 0 0 0 -6.29,-6.29 z M 6.326,1.009 A 5.407,5.407 0 0 1 11.733,6.416 5.407,5.407 0 0 1 6.326,11.823 5.407,5.407 0 0 1 0.92,6.416 5.407,5.407 0 0 1 6.326,1.01 Z M 3.652,3.347 c -0.58,0 -1.046,0.467 -1.046,1.047 V 7.74 c 0,0.391 0.215,0.728 0.532,0.907 H 2.206 v 0.82 h 8.28 V 8.647 H 9.634 A 1.04,1.04 0 0 0 10.165,7.74 V 4.394 c 0,-0.58 -0.466,-1.047 -1.046,-1.047 z m 0.545,0.54 h 4.407 a 0.88,0.88 0 0 1 0.881,0.88 v 2.819 a 0.88,0.88 0 0 1 -0.88,0.88 H 4.196 A 0.88,0.88 0 0 1 3.315,7.586 V 4.768 A 0.88,0.88 0 0 1 4.195,3.887 Z M 5.714,8.555 H 7.015 V 8.823 H 5.714 Z"
     id="path2"
     inkscape:connector-curvature="0"
     style="fill:#5beedc" />
</svg>
